X:7
T:Stockchryyz-Juiz. 2016  Bb  ABAC
T:Peter Ming (03.03.1952)
T:Dirigenten-Notiz  Edi Gasser
C:Unterwalden (CH)
%%partsbox
P:ABAC
R:Naturjodel
M:3/4
L:1/8
K:Bb
[P:A] B,>C | D3 F B>c | d2B2 Ff | c2 F2Ff | d>c !fermata!B2B,>C | 
D3F B>c | d2B2 Ff | c2F2| f>ec2d2 | B4z2 || 
L:1/4
M:3/4
[P:B]  d/c/ | B2D | F2B | d2c | B2d | cFF | cFF | d2c | !fermata!B2d/c/ | 
B2D | F2B | d>c d/c/ | B2d | cFF | cFF | "rit."dcd | !fermata!B2z |] 
M:3/4
[P:C] d/d/ d/c/ B/c/ | d/d/ d/c/ B/d/ | cFd | c3 | ecA | 
FFe | d2D | F3 | d/d/ d/c/ B/c/ | d/d/ d/c/ B/d/ | 
cFd | c3 | ecA | "rit."FAc | B3 | d/d/ d/c/ B/c/ | 
d/d/ d/c/ B/d/ | cFd | c3 | ecA | FFe | d2D | F3 | 
d/d/ d/c/ B/c/ | d/d/ d/c/ B/d/ | cFd | c3 | "rit."ecA | F [Ac] [ce] !fermata! [Bd]3 |]
W:
%W:Reihenfolge: A - B - A - C
W:
W:notiert Edi Gasser
W:UJV-Naturjodelsammlung: Code-Nr: 53-04
W:http://www.naturjodler.ch/code 53.htm  (with AUDIO)
%September 20, 2018

